icon-themes/sifr_svg/cmd/lc_sourceview.svg

<svg viewBox="0 0 24 24" xmlns="http://www.w3.org/2000/svg"><path d="m12 3-2 18h2l2-18zm-4.3 2-6.7 6.3v2.4l5.7 6.3h1.3v-1.5l-5.5-6 6.5-6v-1.5zm8.3 0v1.5l5.5 6-6.5 6.019531v1.480469h1.3l6.7-6.300781v-2.399219l-5.7-6.3z" fill="#555753"/></svg>

<svg xmlns="http://www.w3.org/2000/svg" viewBox="0 0 24 24">
  <path
     style="fill:#555753"
     d="M 12 3 L 10 21 L 12 21 L 14 3 L 12 3 z M 7.7 5 L 1 11.3 L 1 13.7 L 6.7 20 L 8 20 L 8 18.5 L 2.5 12.5 L 9 6.5 L 9 5 L 7.7 5 z M 16 5 L 16 6.5 L 21.5 12.5 L 15 18.519531 L 15 20 L 16.3 20 L 23 13.699219 L 23 11.3 L 17.3 5 L 16 5 z "
     />
</svg>
